X: 99
T: Mari's Wedding
M: 4/4
L: 1/4
C: Book 1B Tunes/Scottish
K: A
Q: 1/4=136
|: "A" vE>(uF E) F | A B c2 | "Bm" B A F A | "A" c B c<e |
"A" vE>(uF E) F | A B c2 | "Bm" B A F D | "E" E2 E2 :|
|: "A" ve>(uf e) d | c B c2 | "Bm" B A F A | "A" c B c<e |
"A" ve>(uf e) d | c B c2 | "Bm" B A F D | "E" E2 E2 :|

%  Note:  this was an A  ^,  not a B,  in the scanned version

